X:167 
T:Poor Old Woman (polka), The 
F:file ID: cre.5/167poor_ow
B:CRE5.084 (Sean Bhean Bhocht)
M:2/4
L:1/8
Q:140
R:polka
K:G
GA|Bd AB|G2 ED|EA AB|A2 GA|
Bd/B/ AB|G2 ED|E2 GG|G2:|
GA|BA dB|e2 ge|d{Bd}B AG|E2 GA|
Bd/B/ AB|G2 ED|E2 GG|G2:|

%%%

